static/img/footer/slack.svg

<svg width="24" height="24" viewBox="0 0 24 24" fill="none" xmlns="http://www.w3.org/2000/svg">
<g clip-path="url(#clip0_1142_1891)">
<path d="M5.13741 15.1175C5.13741 16.4971 4.02245 17.612 2.64293 17.612C1.2634 17.612 0.148438 16.4971 0.148438 15.1175C0.148438 13.738 1.2634 12.623 2.64293 12.623H5.13741V15.1175ZM6.38466 15.1175C6.38466 13.738 7.49962 12.623 8.87915 12.623C10.2587 12.623 11.3736 13.738 11.3736 15.1175V21.3538C11.3736 22.7333 10.2587 23.8482 8.87915 23.8482C7.49962 23.8482 6.38466 22.7333 6.38466 21.3538V15.1175Z" fill="#E01E5A"/>
<path d="M8.88242 5.10226C7.50289 5.10226 6.38793 3.9873 6.38793 2.60777C6.38793 1.22824 7.50289 0.113281 8.88242 0.113281C10.2619 0.113281 11.3769 1.22824 11.3769 2.60777V5.10226H8.88242ZM8.88242 6.3684C10.2619 6.3684 11.3769 7.48336 11.3769 8.86289C11.3769 10.2424 10.2619 11.3574 8.88242 11.3574H2.6273C1.24777 11.3574 0.132812 10.2424 0.132812 8.86289C0.132812 7.48336 1.24777 6.3684 2.6273 6.3684H8.88242Z" fill="#36C5F0"/>
<path d="M18.8768 8.86289C18.8768 7.48336 19.9918 6.3684 21.3713 6.3684C22.7509 6.3684 23.8658 7.48336 23.8658 8.86289C23.8658 10.2424 22.7509 11.3574 21.3713 11.3574H18.8768V8.86289ZM17.6296 8.86289C17.6296 10.2424 16.5146 11.3574 15.1351 11.3574C13.7556 11.3574 12.6406 10.2424 12.6406 8.86289V2.60777C12.6406 1.22824 13.7556 0.113281 15.1351 0.113281C16.5146 0.113281 17.6296 1.22824 17.6296 2.60777V8.86289Z" fill="#2EB67D"/>
<path d="M15.1351 18.8593C16.5146 18.8593 17.6296 19.9742 17.6296 21.3538C17.6296 22.7333 16.5146 23.8482 15.1351 23.8482C13.7556 23.8482 12.6406 22.7333 12.6406 21.3538V18.8593H15.1351ZM15.1351 17.612C13.7556 17.612 12.6406 16.4971 12.6406 15.1175C12.6406 13.738 13.7556 12.623 15.1351 12.623H21.3902C22.7698 12.623 23.8847 13.738 23.8847 15.1175C23.8847 16.4971 22.7698 17.612 21.3902 17.612H15.1351Z" fill="#ECB22E"/>
</g>
<defs>
<clipPath id="clip0_1142_1891">
<rect width="24" height="24" fill="white"/>
</clipPath>
</defs>
</svg>

<svg xmlns="http://www.w3.org/2000/svg" width="24" height="24" fill="none" viewBox="0 0 24 24"><g clip-path="url(#a)"><path fill="#e01e5a" d="M5.137 15.118a2.49 2.49 0 0 1-2.494 2.494 2.49 2.49 0 0 1-2.495-2.494 2.49 2.49 0 0 1 2.495-2.495h2.494zm1.248 0a2.49 2.49 0 0 1 2.494-2.495 2.49 2.49 0 0 1 2.495 2.495v6.236a2.49 2.49 0 0 1-2.495 2.494 2.49 2.49 0 0 1-2.494-2.494z"/><path fill="#36c5f0" d="M8.882 5.102a2.49 2.49 0 0 1-2.494-2.494A2.49 2.49 0 0 1 8.882.113a2.49 2.49 0 0 1 2.495 2.495v2.494zm0 1.266a2.49 2.49 0 0 1 2.495 2.495 2.49 2.49 0 0 1-2.495 2.494H2.627A2.49 2.49 0 0 1 .133 8.863a2.49 2.49 0 0 1 2.494-2.495z"/><path fill="#2eb67d" d="M18.877 8.863a2.49 2.49 0 0 1 2.494-2.495 2.49 2.49 0 0 1 2.495 2.495 2.49 2.49 0 0 1-2.495 2.494h-2.494zm-1.247 0a2.49 2.49 0 0 1-2.495 2.494 2.49 2.49 0 0 1-2.494-2.494V2.608A2.49 2.49 0 0 1 15.135.113a2.49 2.49 0 0 1 2.495 2.495z"/><path fill="#ecb22e" d="M15.135 18.86a2.49 2.49 0 0 1 2.495 2.494 2.49 2.49 0 0 1-2.495 2.494 2.49 2.49 0 0 1-2.494-2.494v-2.495zm0-1.248a2.49 2.49 0 0 1-2.494-2.494 2.49 2.49 0 0 1 2.494-2.495h6.255a2.49 2.49 0 0 1 2.495 2.495 2.49 2.49 0 0 1-2.495 2.494z"/></g><defs><clipPath id="a"><path fill="#fff" d="M0 0h24v24H0z"/></clipPath></defs></svg>
